;FLAVOR:Marlin
;TIME:230
;Filament used: 0.215383m
;Layer height: 0.2
;MINX:104.816
;MINY:102.665
;MINZ:0.2
;MAXX:130.188
;MAXY:132.337
;MAXZ:3
;Generated with Cura_SteamEngine 5.2.1
M82 ;absolute extrusion mode
; BIQU B1 Start G-code
M117 Getting the bed up to temp!
M140 S70      ; Set Heat Bed temperature
M190 S70      ; Wait for Heat Bed temperature
M117 Getting the extruder up to temp!
M104 S210    ; Set Extruder temperature
G92 E0                           ; Reset Extruder
M117 Homing axes
G28                              ; Home all axes
M109 S210    ; Wait for Extruder temperature
G1 Z2.0 F3000                    ; Move Z Axis up little to prevent scratching of Heat Bed
G1 X4.1 Y20 Z0.3 F5000.0         ; Move to start position
M117 Lets make
G1 Z2.0 F3000                    ; Move Z Axis up little to prevent scratching of Heat Bed
G1 X5 Y20 Z0.3 F5000.0           ; Move over to prevent blob squish
G92 E0
G92 E0
G1 F4200 E-7
;LAYER_COUNT:15
;LAYER:0
M107
G0 F6000 X112.301 Y105.032 Z0.2
;TYPE:SKIRT
G1 F4200 E0
G1 F1200 X112.602 Y104.712 E0.01534
G1 X112.82 Y104.501 E0.02594
G1 X113.16 Y104.202 E0.04175
G1 X113.445 Y103.979 E0.05439
G1 X113.695 Y103.805 E0.06502
G1 X113.913 Y103.666 E0.07405
G1 X114.217 Y103.489 E0.08634
G1 X114.565 Y103.313 E0.09996
G1 X114.979 Y103.135 E0.1157
G1 X115.425 Y102.983 E0.13215
G1 X115.718 Y102.898 E0.14281
G1 X116.18 Y102.788 E0.15939
G1 X116.63 Y102.714 E0.17532
G1 X116.97 Y102.683 E0.18724
G1 X117.536 Y102.665 E0.20702
G1 X117.826 Y102.672 E0.21715
G1 X118.212 Y102.7 E0.23066
G1 X118.578 Y102.748 E0.24356
G1 X118.983 Y102.825 E0.25795
G1 X119.264 Y102.892 E0.26804
G1 X119.544 Y102.972 E0.27821
G1 X119.825 Y103.067 E0.28857
G1 X120.167 Y103.2 E0.30139
G1 X120.434 Y103.318 E0.31158
G1 X120.739 Y103.47 E0.32348
G1 X120.977 Y103.601 E0.33297
G1 X121.197 Y103.735 E0.34196
G1 X121.416 Y103.882 E0.35118
G1 X121.685 Y104.078 E0.3628
G1 X121.912 Y104.259 E0.37294
G1 X122.223 Y104.532 E0.38739
G1 X122.459 Y104.762 E0.3989
G1 X122.648 Y104.966 E0.40861
G1 X122.817 Y105.163 E0.41768
G1 X123.115 Y105.542 E0.43451
G1 X123.378 Y105.933 E0.45097
G1 X123.591 Y106.306 E0.46597
G1 X123.735 Y106.591 E0.47712
G1 X124.089 Y107.386 E0.50751
G1 X124.12 Y107.44 E0.50969
G1 X124.849 Y109.105 E0.57316
G1 X126.027 Y111.6 E0.66952
G1 X127.253 Y114.02 E0.76426
G1 X128.564 Y116.435 E0.86023
G1 X129.077 Y117.325 E0.8961
G1 X129.48 Y118.069 E0.92565
G1 X129.661 Y118.466 E0.94089
G1 X129.808 Y118.857 E0.95548
G1 X129.9 Y119.142 E0.96594
G1 X129.997 Y119.498 E0.97882
G1 X130.072 Y119.849 E0.99136
G1 X130.142 Y120.301 E1.00733
G1 X130.181 Y120.815 E1.02533
G1 X130.188 Y121.174 E1.03787
G1 X130.173 Y121.584 E1.0522
G1 X130.148 Y121.884 E1.06271
G1 X130.099 Y122.257 E1.07585
G1 X129.995 Y122.746 E1.09331
G1 X129.864 Y123.19 E1.10948
G1 X129.588 Y124.004 E1.13949
G1 X129.482 Y124.274 E1.14962
G1 X129.213 Y124.875 E1.17262
G1 X128.762 Y125.783 E1.20803
G1 X128.475 Y126.259 E1.22744
G1 X128.214 Y126.657 E1.24406
G1 X127.73 Y127.322 E1.27278
G1 X127.563 Y127.531 E1.28213
G1 X126.878 Y128.316 E1.31851
G1 X126.696 Y128.508 E1.32775
G1 X126.238 Y128.947 E1.34991
G1 X125.906 Y129.236 E1.36528
G1 X125.501 Y129.562 E1.38343
G1 X124.638 Y130.201 E1.42094
G1 X124.041 Y130.568 E1.44541
G1 X123.615 Y130.807 E1.46247
G1 X122.956 Y131.138 E1.48822
G1 X122.599 Y131.292 E1.5018
G1 X121.655 Y131.655 E1.53712
G1 X121.416 Y131.736 E1.54593
G1 X121.017 Y131.85 E1.56043
G1 X120.21 Y132.044 E1.58941
G1 X119.581 Y132.169 E1.61181
G1 X119.322 Y132.209 E1.62096
G1 X118.494 Y132.304 E1.65007
G1 X118.236 Y132.323 E1.6591
G1 X117.678 Y132.337 E1.67859
G1 X116.93 Y132.319 E1.70472
G1 X116.015 Y132.26 E1.73674
G1 X115.442 Y132.174 E1.75698
G1 X114.319 Y131.949 E1.79698
G1 X113.796 Y131.801 E1.81596
G1 X113.233 Y131.614 E1.83668
G1 X112.179 Y131.202 E1.8762
G1 X111.598 Y130.919 E1.89877
G1 X111.179 Y130.69 E1.91544
G1 X110.22 Y130.105 E1.95468
G1 X109.77 Y129.776 E1.97414
G1 X109.379 Y129.465 E1.99159
G1 X108.819 Y128.983 E2.01739
G1 X108.342 Y128.536 E2.04022
G1 X108.148 Y128.338 E2.0499
G1 X107.489 Y127.604 E2.08435
G1 X107.1 Y127.102 E2.10653
G1 X106.797 Y126.673 E2.12487
G1 X106.323 Y125.905 E2.15639
G1 X106.027 Y125.379 E2.17747
G1 X105.898 Y125.123 E2.18748
G1 X105.574 Y124.397 E2.21525
G1 X105.325 Y123.78 E2.23848
G1 X105.24 Y123.543 E2.24728
G1 X105.077 Y123.025 E2.26624
G1 X104.995 Y122.708 E2.27768
G1 X104.892 Y122.171 E2.29677
G1 X104.855 Y121.897 E2.30643
G1 X104.827 Y121.526 E2.31942
G1 X104.816 Y120.913 E2.34083
G1 X104.845 Y120.422 E2.35801
G1 X104.901 Y120.013 E2.37243
G1 X104.951 Y119.736 E2.38226
G1 X105.036 Y119.363 E2.39562
G1 X105.153 Y118.968 E2.41
G1 X105.308 Y118.547 E2.42567
G1 X105.423 Y118.275 E2.43598
G1 X105.606 Y117.902 E2.45049
G1 X105.881 Y117.398 E2.47054
G1 X106.941 Y115.528 E2.54561
G1 X108.212 Y113.133 E2.6403
G1 X109.423 Y110.685 E2.73568
G1 X110.564 Y108.204 E2.83105
G1 X111.156 Y106.835 E2.88314
G1 X111.375 Y106.382 E2.90071
G1 X111.618 Y105.951 E2.91799
G1 X111.798 Y105.676 E2.92947
G1 X111.809 Y105.662 E2.93009
G0 F1080 X112.052 Y105.33
G0 X112.301 Y105.032
G1 F4200 E-4.06991
;MESH:Trolley Token Removable Lite.3mf
G0 F6000 X112.873 Y116.382
G0 X113.732 Y117.051
G0 X113.395 Y118.165
;TYPE:WALL-INNER
G1 F4200 E2.93009
G1 F898.9 X113.88 Y118.521 E2.95814
G1 X114.119 Y118.743 E2.97335
G1 X114.119 Y117.582 E3.02748
G1 X113.9 Y117.811 E3.04225
G1 X113.541 Y118.063 E3.0627
G0 F1080 X113.395 Y118.165
G0 F6000 X113.64 Y118.925
G1 F1200 X113.875 Y119.159 E3.07428
G1 X114.175 Y119.538 E3.09116
G1 X114.244 Y119.65 E3.09576
G1 F923.1 X114.522 Y119.964 E3.11479
G1 X114.586 Y119.574 E3.13274
G1 F1200 X114.586 Y116.649 E3.23489
G1 F995.9 X114.504 Y116.139 E3.25663
G1 F816.3 X114.48 Y116.05 E3.26136
G1 X114.434 Y116.129 E3.26605
G1 F995.9 X114.143 Y116.735 E3.29434
G1 F1200 X113.876 Y117.162 E3.31193
G1 X113.591 Y117.458 E3.32628
G1 X113.178 Y117.746 E3.34386
G1 X112.626 Y117.953 E3.36445
G1 X112.59 Y117.96 E3.36573
G1 F1061.9 X112.13 Y118.127 E3.38504
G1 X112.579 Y118.33 E3.40449
G1 F1200 X112.702 Y118.364 E3.40895
G1 X113.254 Y118.64 E3.4305
G1 X113.575 Y118.877 E3.44443
G0 F1080 X113.64 Y118.925
G0 F6000 X113.852 Y118.714
G0 X115.058 Y120.707
G0 X115.468 Y121.285
G0 X116.011 Y121.735
G0 X116.802 Y122.069
G0 X117.28 Y122.16
G0 X117.875 Y122.143
G0 X118.475 Y121.995
G0 X119.09 Y121.668
G0 X119.464 Y121.336
G0 X119.765 Y120.973
G0 X120.88 Y118.753
G1 F905.7 X121.107 Y118.532 E3.45909
G1 X121.427 Y118.287 E3.47774
G1 X121.636 Y118.162 E3.48901
G1 X121.216 Y117.904 E3.51182
G1 X120.881 Y117.607 E3.53254
G1 X120.88 Y118.551 E3.57622
G0 F1080 X120.88 Y118.753
G0 F6000 X121.137 Y117.639
G0 X121.372 Y117.453
G1 F1200 X120.913 Y116.88 E3.60186
G1 X120.741 Y116.462 E3.61764
G1 X120.704 Y116.338 E3.62216
G1 F946.7 X120.522 Y115.919 E3.64238
G1 X120.415 Y116.363 E3.6626
G1 F1200 X120.412 Y119.552 E3.77397
G1 F930.2 X120.482 Y119.961 E3.79266
G1 X120.762 Y119.655 E3.81135
G1 F1200 X121.008 Y119.289 E3.82675
G1 X121.391 Y118.901 E3.84579
G1 X121.758 Y118.619 E3.86195
G1 X122.331 Y118.35 E3.88406
G1 X122.454 Y118.318 E3.8885
G1 F933.9 X122.837 Y118.127 E3.9077
G1 F808.1 X122.724 Y118.087 E3.91392
G1 F1000 X122.445 Y117.966 E3.92667
G1 F1200 X122.329 Y117.939 E3.93083
G1 X121.922 Y117.794 E3.94591
G1 X121.439 Y117.494 E3.96577
G0 F1080 X121.372 Y117.453
G0 F6000 X121.641 Y117.149
;TYPE:WALL-OUTER
G1 F1200 X121.261 Y116.676 E3.98696
G1 X121.098 Y116.268 E4.0023
G1 X121.018 Y115.796 E4.01902
G1 X121.012 Y109.385 E4.24292
G1 X120.979 Y109.025 E4.25554
G1 X120.889 Y108.629 E4.26972
G1 X120.796 Y108.335 E4.28049
G1 X120.644 Y107.982 E4.29391
G1 X120.407 Y107.585 E4.31006
G1 X120.179 Y107.291 E4.32305
G1 X119.987 Y107.082 E4.33296
G1 X119.734 Y106.851 E4.34493
G1 X119.492 Y106.671 E4.35546
G1 X119.232 Y106.508 E4.36618
G1 X118.96 Y106.369 E4.37685
G1 X118.679 Y106.255 E4.38744
G1 X118.382 Y106.165 E4.39827
G1 X118.021 Y106.088 E4.41117
G1 X117.652 Y106.056 E4.4241
G1 X117.296 Y106.058 E4.43653
G1 X116.947 Y106.091 E4.44878
G1 X116.56 Y106.179 E4.46264
G1 X116.269 Y106.272 E4.47331
G1 X115.913 Y106.424 E4.48682
G1 X115.586 Y106.618 E4.5001
G1 X115.361 Y106.778 E4.50974
G1 X115.104 Y106.995 E4.52149
G1 X114.83 Y107.274 E4.53515
G1 X114.603 Y107.575 E4.54831
G1 X114.43 Y107.854 E4.55978
G1 X114.301 Y108.106 E4.56966
G1 X114.169 Y108.443 E4.5823
G1 X114.097 Y108.686 E4.59116
G1 X114.032 Y108.987 E4.60191
G1 X113.998 Y109.261 E4.61155
G1 X113.983 Y109.583 E4.62281
G1 X113.98 Y115.964 E4.84565
G1 X113.818 Y116.499 E4.86518
G1 X113.569 Y116.899 E4.88163
G1 X113.312 Y117.165 E4.89455
G1 X113.01 Y117.375 E4.90739
G1 X112.52 Y117.566 E4.92576
G1 F1203 X112.241 Y117.614 E4.93562
G1 X111.625 Y117.605 E4.95708
G1 F1200 X111.328 Y117.626 E4.96748
G1 X111.029 Y117.672 E4.97805
G1 X110.73 Y117.746 E4.9888
G1 X110.428 Y117.848 E4.99994
G1 X110.171 Y117.96 E5.00973
G1 X109.892 Y118.114 E5.02086
G1 X109.66 Y118.268 E5.03058
G1 X109.424 Y118.455 E5.0411
G1 X109.151 Y118.712 E5.05419
G1 X108.909 Y119.003 E5.06741
G1 X108.737 Y119.251 E5.07795
G1 X108.579 Y119.533 E5.08924
G1 X108.462 Y119.789 E5.09907
G1 X108.334 Y120.142 E5.11218
G1 X108.254 Y120.509 E5.1253
G1 X108.204 Y120.888 E5.13865
G1 X108.202 Y121.334 E5.15422
G1 X108.25 Y121.71 E5.16746
G1 X108.318 Y122.029 E5.17885
G1 X108.492 Y122.578 E5.19896
G1 X108.65 Y122.986 E5.21424
G1 X108.79 Y123.311 E5.2266
G1 X108.993 Y123.739 E5.24315
G1 X109.187 Y124.101 E5.25749
G1 X109.361 Y124.397 E5.26948
G1 X109.586 Y124.746 E5.28398
G1 X109.873 Y125.146 E5.30117
G1 X110.129 Y125.473 E5.31568
G1 X110.403 Y125.789 E5.33028
G1 X110.687 Y126.093 E5.34481
G1 X110.982 Y126.38 E5.35919
G1 X111.293 Y126.657 E5.37373
G1 X111.551 Y126.869 E5.38539
G1 X111.883 Y127.124 E5.40001
G1 X112.222 Y127.36 E5.41444
G1 X112.571 Y127.578 E5.42881
G1 X112.935 Y127.788 E5.44348
G1 X113.302 Y127.977 E5.4579
G1 X113.695 Y128.159 E5.47303
G1 X114.052 Y128.307 E5.48652
G1 X114.441 Y128.448 E5.50097
G1 X114.847 Y128.575 E5.51583
G1 X115.239 Y128.678 E5.52998
G1 X115.655 Y128.77 E5.54486
G1 X116.053 Y128.841 E5.55898
G1 X116.552 Y128.902 E5.57654
G1 X116.961 Y128.934 E5.59086
G1 X117.32 Y128.949 E5.60341
G1 X117.717 Y128.949 E5.61728
G1 X118.213 Y128.923 E5.63462
G1 X118.618 Y128.884 E5.64883
G1 X118.956 Y128.839 E5.66074
G1 X119.365 Y128.766 E5.67525
G1 X119.786 Y128.673 E5.69031
G1 X120.15 Y128.577 E5.70345
G1 X120.566 Y128.447 E5.71867
G1 X120.953 Y128.303 E5.73309
G1 X121.34 Y128.144 E5.74771
G1 X121.716 Y127.969 E5.76219
G1 X122.075 Y127.782 E5.77633
G1 X122.506 Y127.532 E5.79373
G1 X122.848 Y127.314 E5.80789
G1 X123.195 Y127.066 E5.82279
G1 X123.463 Y126.861 E5.83457
G1 X123.784 Y126.592 E5.8492
G1 X124.074 Y126.328 E5.86289
G1 X124.427 Y125.976 E5.8803
G1 X124.713 Y125.66 E5.89519
G1 X124.981 Y125.336 E5.90987
G1 X125.183 Y125.071 E5.92151
G1 X125.424 Y124.729 E5.93612
G1 X125.647 Y124.382 E5.95052
G1 X125.855 Y124.023 E5.96501
G1 X126.049 Y123.654 E5.97957
G1 X126.222 Y123.289 E5.99368
G1 X126.387 Y122.895 E6.0086
G1 X126.536 Y122.491 E6.02363
G1 X126.661 Y122.094 E6.03817
G1 X126.751 Y121.734 E6.05113
G1 X126.792 Y121.354 E6.06448
G1 X126.799 Y121.061 E6.07471
G1 X126.78 Y120.754 E6.08545
G1 X126.724 Y120.376 E6.0988
G1 X126.63 Y120.039 E6.11102
G1 X126.491 Y119.669 E6.12482
G1 X126.311 Y119.332 E6.13816
G1 X126.148 Y119.081 E6.14861
G1 X125.985 Y118.871 E6.1579
G1 X125.759 Y118.621 E6.16967
G1 X125.536 Y118.419 E6.18018
G1 X125.298 Y118.237 E6.19064
G1 X124.975 Y118.033 E6.20398
G1 X124.638 Y117.875 E6.21698
G1 X124.295 Y117.748 E6.22975
G1 X123.866 Y117.65 E6.24512
G1 X123.495 Y117.611 E6.25815
G1 X123.18 Y117.605 E6.26915
G1 X122.792 Y117.612 E6.2827
G1 X122.493 Y117.569 E6.29325
G1 X122.347 Y117.518 E6.29865
G0 F1080 X122.119 Y117.44
G0 X121.641 Y117.149
G1 F4200 E-0.70135
G0 F6000 X121.093 Y117.584
G0 X120.106 Y120.333
G0 X119.837 Y120.887
G0 X119.464 Y121.336
G0 X119.09 Y121.668
G0 X118.475 Y121.995
G0 X117.875 Y122.143
G0 X117.394 Y122.156
G0 X116.461 Y122.018
G1 F4200 E6.29865
G0 F6000 X116.556 Y121.735
G1 F1200 X116.139 Y121.53 E6.31488
G1 X115.657 Y121.132 E6.33671
G1 X115.27 Y120.592 E6.35991
G1 X115.096 Y120.153 E6.3764
G1 F1203 X114.991 Y119.679 E6.39332
G1 X114.985 Y109.479 E6.74864
G1 F1200 X115.017 Y109.151 E6.76015
G1 X115.119 Y108.722 E6.77555
G1 X115.368 Y108.211 E6.7954
G1 X115.708 Y107.798 E6.81409
G1 X116.049 Y107.496 E6.82999
G1 X116.521 Y107.249 E6.8486
G1 X116.94 Y107.113 E6.86398
G1 X117.379 Y107.043 E6.87951
G1 X117.934 Y107.087 E6.89895
G1 X118.359 Y107.191 E6.91423
G1 X118.858 Y107.436 E6.93364
G1 X119.347 Y107.842 E6.95584
G1 X119.688 Y108.301 E6.97581
G1 X119.9 Y108.799 E6.99471
G1 X120.014 Y109.315 E7.01317
G1 X120.016 Y119.49 E7.36851
G1 X119.979 Y119.84 E7.3808
G1 X119.878 Y120.257 E7.39578
G1 X119.625 Y120.769 E7.41573
G1 X119.289 Y121.175 E7.43413
G1 X118.956 Y121.468 E7.44962
G1 X118.384 Y121.771 E7.47223
G1 X117.867 Y121.9 E7.49084
G1 X117.332 Y121.92 E7.50954
G0 F1080 X117.304 Y121.92
G0 X116.846 Y121.833
G0 X116.556 Y121.735
G0 F6000 X116.461 Y122.018
G0 X116.011 Y121.735
G0 X115.468 Y121.285
G0 X115.058 Y120.707
G0 X114.873 Y120.241
G0 X114.372 Y116.787
G0 X114.48 Y116.05
;TYPE:WALL-INNER
G1 F794.7 X114.487 Y109.446 E7.85779
G1 F801.3 X114.52 Y109.09 E7.87649
G1 F800 X114.622 Y108.633 E7.90102
G1 F797.3 X114.758 Y108.314 E7.91924
G1 X114.968 Y107.914 E7.94299
G1 F794.7 X115.213 Y107.604 E7.96383
G1 F798.7 X115.39 Y107.408 E7.97768
G1 F813.6 X115.763 Y107.096 E8.00273
G1 F812.2 X116.246 Y106.816 E8.03154
G1 F805.4 X116.768 Y106.639 E8.06022
G1 F796 X117.026 Y106.589 E8.07406
G1 F797.3 X117.444 Y106.542 E8.09616
G1 F801.3 X117.95 Y106.585 E8.12272
G1 F802.7 X118.426 Y106.686 E8.14813
G1 F801.3 X118.751 Y106.825 E8.16661
G1 F808.1 X119.12 Y107.018 E8.18821
G1 F804 X119.412 Y107.24 E8.20733
G1 F796 X119.686 Y107.477 E8.2264
G1 F800 X119.992 Y107.868 E8.25241
G1 F794.7 X120.196 Y108.21 E8.27341
G1 F798.7 X120.364 Y108.604 E8.29589
G1 F802.7 X120.513 Y109.234 E8.32969
G1 F800 X120.516 Y115.796 E8.67343
G1 F788.2 X120.522 Y115.919 E8.67998
G1 F4200 E1.67998
G0 F6000 X120.634 Y116.774
G0 X120.218 Y119.864
G0 X120.106 Y120.333
G0 X119.837 Y120.887
G0 X119.464 Y121.336
G0 X119.09 Y121.668
G0 X118.475 Y121.995
G0 X117.875 Y122.143
G0 X117.28 Y122.16
G0 X116.458 Y121.955
G0 X116.011 Y121.735
G0 X115.468 Y121.285
G0 X115.058 Y120.707
G0 X114.873 Y120.241
G0 X114.747 Y119.682
G0 X114.385 Y117.948
G0 X111.042 Y118.442
G0 X109.964 Y118.904
G1 F4200 E8.67998
G0 F6000 X110.171 Y119.12
;TYPE:WALL-OUTER
G1 F1200 X110.64 Y118.834 E8.69917
G1 X111.1 Y118.674 E8.71617
G1 X111.476 Y118.614 E8.72947
G1 X111.991 Y118.608 E8.74746
G1 X112.56 Y118.738 E8.76784
G1 X113.036 Y118.976 E8.78643
G1 X113.387 Y119.238 E8.80172
G1 X113.61 Y119.462 E8.81276
G1 X113.882 Y119.82 E8.82846
G1 X114.06 Y120.203 E8.84321
G1 X114.24 Y120.718 E8.86227
G1 X114.402 Y121.072 E8.87586
G1 X114.639 Y121.451 E8.89147
G1 X114.929 Y121.805 E8.90745
G1 X115.213 Y122.072 E8.92107
G1 X115.451 Y122.259 E8.93164
G1 X115.776 Y122.472 E8.94521
G1 X116.114 Y122.633 E8.95828
G1 X116.398 Y122.74 E8.96888
G1 X116.696 Y122.824 E8.97969
G1 X117.067 Y122.895 E8.99289
G1 X117.423 Y122.917 E9.00534
G1 X117.819 Y122.908 E9.01917
G1 X118.161 Y122.854 E9.03127
G1 X118.495 Y122.773 E9.04327
G1 X118.87 Y122.644 E9.05712
G1 X119.211 Y122.473 E9.07044
G1 X119.468 Y122.314 E9.08099
G1 X119.779 Y122.083 E9.09452
G1 X120.052 Y121.82 E9.10776
G1 X120.251 Y121.59 E9.11838
G1 X120.47 Y121.291 E9.13133
G1 X120.694 Y120.881 E9.14764
G1 X120.837 Y120.514 E9.1614
G1 X120.969 Y120.131 E9.17555
G1 X121.132 Y119.813 E9.18803
G1 X121.311 Y119.555 E9.19899
G1 X121.635 Y119.219 E9.21529
G1 X121.954 Y118.974 E9.22934
G1 X122.47 Y118.726 E9.24933
G1 X122.993 Y118.62 E9.26797
G1 X123.443 Y118.607 E9.28369
G1 X123.781 Y118.651 E9.2956
G1 X124.178 Y118.767 E9.31004
G1 X124.51 Y118.92 E9.32281
G1 X124.854 Y119.15 E9.33726
G1 X125.25 Y119.53 E9.35642
G1 X125.485 Y119.899 E9.3717
G1 X125.671 Y120.32 E9.38778
G1 X125.773 Y120.745 E9.40304
G1 X125.81 Y121.169 E9.4179
G1 X125.739 Y121.706 E9.43682
G1 X125.587 Y122.172 E9.45394
G1 X125.473 Y122.489 E9.4657
